jimu.js/css/fonts/drawbox.svg

<?xml version="1.0" standalone="no"?>
<!DOCTYPE svg PUBLIC "-//W3C//DTD SVG 1.1//EN" "http://www.w3.org/Graphics/SVG/1.1/DTD/svg11.dtd" >
<svg xmlns="http://www.w3.org/2000/svg">
<metadata>Generated by IcoMoon</metadata>
<defs>
<font id="Drawbox" horiz-adv-x="1024">
<font-face units-per-em="1024" ascent="960" descent="-64" />
<missing-glyph horiz-adv-x="1024" />
<glyph unicode="&#x20;" horiz-adv-x="512" d="" />
<glyph unicode="&#xe900;" glyph-name="text" d="M160.685-64h-160.685l448.457 1024h131.469l444.074-1024h-163.606l-105.176 251.661h-490.819l-103.715-251.661zM315.526 313.492h387.104l-192.821 480.181-194.283-480.181z" />
<glyph unicode="&#xe901;" glyph-name="danger" horiz-adv-x="1152" d="M1138.684 72.776c15.721-27.22 15.721-60.767 0.007-87.991-15.717-27.227-44.768-43.995-76.203-43.995h-971.021c-31.438 0-60.485 16.772-76.203 43.995s-15.717 60.771 0.007 87.991l485.511 840.744c15.717 27.223 44.764 43.985 76.196 43.985 31.435 0 60.478-16.765 76.196-43.985l485.511-840.744zM516.072 566.611l25.233-288.87c1.472-17.005 14.969-31.020 32.559-32.559 19.702-1.723 37.069 12.856 38.789 32.559l25.233 288.87c0.271 3.376 0.306 7.159 0 10.639-2.937 33.641-32.587 58.526-66.224 55.592-33.638-2.941-58.526-32.597-55.588-66.231zM576.978 126.345c27.871 0 50.465 22.594 50.465 50.465s-22.594 50.465-50.465 50.465c-27.871 0-50.465-22.594-50.465-50.465s22.594-50.465 50.465-50.465z" />
<glyph unicode="&#xe902;" glyph-name="stop" d="M0 550.4h1024v-227.556h-1024v227.556z" />
<glyph unicode="&#xe903;" glyph-name="star" horiz-adv-x="1053" d="M526.629 154.13l325.456-196.273-86.105 370.166 287.277 248.938-378.698 32.494-147.931 348.996-147.929-348.996-378.7-32.494 287.277-248.938-86.105-370.166z" />
<glyph unicode="&#xe904;" glyph-name="elliptic" d="M989.867 393.956c0-158.665-213.948-287.289-477.867-287.289s-477.867 128.624-477.867 287.289c0 158.665 213.948 287.289 477.867 287.289s477.867-128.624 477.867-287.289z" />
<glyph unicode="&#xe905;" glyph-name="rectangle" d="M51.2 755.2h924.444v-600.178h-924.444v600.178z" />
<glyph unicode="&#xe906;" glyph-name="alarm" horiz-adv-x="896" d="M435.2-64c56.32 0 102.4 46.080 102.4 102.4h-204.8c0-56.32 46.080-102.4 102.4-102.4v0zM768 243.2v281.6c0 158.72-107.52 286.72-256 322.56v35.84c0 40.96-35.84 76.8-76.8 76.8s-76.8-35.84-76.8-76.8v-35.84c-148.48-35.84-256-163.84-256-322.56v-281.6l-102.4-102.4v-51.2h870.4v51.2l-102.4 102.4z" />
<glyph unicode="&#xe907;" glyph-name="circle" d="M1024 448c0-282.77-229.23-512-512-512s-512 229.23-512 512c0 282.77 229.23 512 512 512s512-229.23 512-512z" />
<glyph unicode="&#xe908;" glyph-name="curve" horiz-adv-x="916" d="M107.789-37.053h-107.789c2.695 385.347 207.495 441.937 388.042 490.442 188.632 51.2 369.179 102.4 420.379 487.747l107.789-13.474c-61.979-455.411-304.505-522.779-498.526-576.674-180.547-51.2-307.2-86.232-309.895-388.042z" />
<glyph unicode="&#xe909;" glyph-name="down" horiz-adv-x="768" d="M514.349 960h-260.697v-557.367h-253.651l384-466.633 384 466.633h-253.651z" />
<glyph unicode="&#xe90a;" glyph-name="irregular" horiz-adv-x="1205" d="M199.358 761.82c-103.506-105.592 118.539-155.473 60.405-305.861s-373.401-251.703-216.365-432.671c157.036-180.968 268.282 100.681 467.605 68.118s165.294-211.393 356.008-137.797c190.714 73.595-81.729 329.466 34.243 417.467s352.67 160.657 294.357 279.998c-58.314 119.341-140.814 48.421-277.281 34.672s-10.333 274.254-146.946 274.254c-136.613 0-117.526-87.138-232.208-213.157s-236.311 120.57-339.817 14.978z" />
<glyph unicode="&#xe90b;" glyph-name="line" horiz-adv-x="1052" d="M96.17 955.947l939.344-939.344-78.279-78.279-939.344 939.344 78.279 78.279z" />
<glyph unicode="&#xe90c;" glyph-name="pin" horiz-adv-x="569" d="M0 759.866c0 0 4.605 200.134 289.63 200.134s279.25-200.134 279.25-200.134v-595.325l-279.25-228.54-289.63 228.54v595.325zM284.44 521.143c90.948 0 164.676 72.044 164.676 160.914s-73.728 160.914-164.676 160.914c-90.948 0-164.676-72.044-164.676-160.914s73.728-160.914 164.676-160.914z" />
<glyph unicode="&#xe90d;" glyph-name="polygon" horiz-adv-x="1159" d="M0 521.101v-574.14h1015.134v231.011l-326.013 326.013 456.014 456.014h-761.131z" />
<glyph unicode="&#xe90e;" glyph-name="polygonal" horiz-adv-x="1078" d="M105.095-53.221l-102.4 32.337 229.053 679.074 517.389-347.621 223.663 641.347 102.4-37.726-269.474-770.695-517.389 347.621z" />
<glyph unicode="&#xe90f;" glyph-name="right" horiz-adv-x="1378" d="M447.741 163.602l-313.419 313.419-104.473-104.473 417.891-417.891 895.482 895.482-104.473 104.473z" />
<glyph unicode="&#xe910;" glyph-name="triangle" horiz-adv-x="1086" d="M543.030 960l543.030-1024h-1086.061z" />
<glyph unicode="&#xe911;" glyph-name="up" horiz-adv-x="768" d="M253.651-64h260.697v557.367h253.651l-384 466.633-384-466.633h253.651z" />
<glyph unicode="&#xe912;" glyph-name="wrong" d="M1024 857.6l-102.4 102.4-409.6-409.6-409.6 409.6-102.4-102.4 409.6-409.6-409.6-409.6 102.4-102.4 409.6 409.6 409.6-409.6 102.4 102.4-409.6 409.6z" />
<glyph unicode="&#xe913;" glyph-name="arrow-solid" d="M345.977 861.239l651.67 72.408-72.408-651.67-181.019 181.019-506.854-506.854-217.223 217.223 506.854 506.854z" />
</font></defs></svg>

<svg xmlns="http://www.w3.org/2000/svg"><defs><font id="Drawbox" horiz-adv-x="1024"><font-face units-per-em="1024" ascent="960" descent="-64"/><glyph horiz-adv-x="512"/><glyph unicode="" glyph-name="text" d="M160.685-64H0L448.457 960h131.469L1024-64H860.394L755.218 187.661H264.399L160.684-64zm154.841 377.492H702.63L509.809 793.673 315.526 313.492z"/><glyph unicode="" glyph-name="danger" horiz-adv-x="1152" d="M1138.684 72.776a87.986 87.986 0 0 0-76.196-131.986H91.467c-31.438 0-60.485 16.772-76.203 43.995s-15.717 60.771.007 87.991L500.782 913.52c15.717 27.223 44.764 43.985 76.196 43.985a87.982 87.982 0 0 0 76.196-43.985l485.511-840.744zM516.072 566.611l25.233-288.87c1.472-17.005 14.969-31.02 32.559-32.559 19.702-1.723 37.069 12.856 38.789 32.559l25.233 288.87c.271 3.376.306 7.159 0 10.639-2.937 33.641-32.587 58.526-66.224 55.592-33.638-2.941-58.526-32.597-55.588-66.231zm60.906-440.266c27.871 0 50.465 22.594 50.465 50.465s-22.594 50.465-50.465 50.465c-27.871 0-50.465-22.594-50.465-50.465s22.594-50.465 50.465-50.465z"/><glyph unicode="" glyph-name="stop" d="M0 550.4h1024V322.844H0V550.4z"/><glyph unicode="" glyph-name="star" horiz-adv-x="1053" d="M526.629 154.13L852.085-42.143 765.98 328.023l287.277 248.938-378.698 32.494-147.931 348.996-147.929-348.996-378.7-32.494 287.277-248.938-86.105-370.166z"/><glyph unicode="" glyph-name="elliptic" d="M989.867 393.956c0-158.665-213.948-287.289-477.867-287.289S34.133 235.291 34.133 393.956 248.081 681.245 512 681.245s477.867-128.624 477.867-287.289z"/><glyph unicode="" glyph-name="rectangle" d="M51.2 755.2h924.444V155.022H51.2V755.2z"/><glyph unicode="" glyph-name="alarm" horiz-adv-x="896" d="M435.2-64c56.32 0 102.4 46.08 102.4 102.4H332.8C332.8-17.92 378.88-64 435.2-64zM768 243.2v281.6c0 158.72-107.52 286.72-256 322.56v35.84c0 40.96-35.84 76.8-76.8 76.8s-76.8-35.84-76.8-76.8v-35.84c-148.48-35.84-256-163.84-256-322.56V243.2L0 140.8V89.6h870.4v51.2L768 243.2z"/><glyph unicode="" glyph-name="circle" d="M1024 448c0-282.77-229.23-512-512-512S0 165.23 0 448s229.23 512 512 512 512-229.23 512-512z"/><glyph unicode="" glyph-name="curve" horiz-adv-x="916" d="M107.789-37.053H0c2.695 385.347 207.495 441.937 388.042 490.442 188.632 51.2 369.179 102.4 420.379 487.747l107.789-13.474c-61.979-455.411-304.505-522.779-498.526-576.674-180.547-51.2-307.2-86.232-309.895-388.042z"/><glyph unicode="" glyph-name="down" horiz-adv-x="768" d="M514.349 960H253.652V402.633H.001L384.001-64l384 466.633H514.35z"/><glyph unicode="" glyph-name="irregular" horiz-adv-x="1205" d="M199.358 761.82C95.852 656.228 317.897 606.347 259.763 455.959S-113.638 204.256 43.398 23.288 311.68 123.969 511.003 91.406 676.297-119.987 867.011-46.391c190.714 73.595-81.729 329.466 34.243 417.467s352.67 160.657 294.357 279.998c-58.314 119.341-140.814 48.421-277.281 34.672S907.997 960 771.384 960s-117.526-87.138-232.208-213.157-236.311 120.57-339.817 14.978z"/><glyph unicode="" glyph-name="line" horiz-adv-x="1052" d="M96.17 955.947l939.344-939.344-78.279-78.279L17.891 877.668l78.279 78.279z"/><glyph unicode="" glyph-name="pin" horiz-adv-x="569" d="M0 759.866S4.605 960 289.63 960s279.25-200.134 279.25-200.134V164.541L289.63-63.999 0 164.541v595.325zm284.44-238.723c90.948 0 164.676 72.044 164.676 160.914S375.388 842.971 284.44 842.971s-164.676-72.044-164.676-160.914 73.728-160.914 164.676-160.914z"/><glyph unicode="" glyph-name="polygon" horiz-adv-x="1159" d="M0 521.101v-574.14h1015.134v231.011L689.121 503.985l456.014 456.014H384.004z"/><glyph unicode="" glyph-name="polygonal" horiz-adv-x="1078" d="M105.095-53.221L2.695-20.884 231.748 658.19l517.389-347.621L972.8 951.916l102.4-37.726-269.474-770.695-517.389 347.621z"/><glyph unicode="" glyph-name="right" horiz-adv-x="1378" d="M447.741 163.602L134.322 477.021 29.849 372.548 447.74-45.343l895.482 895.482-104.473 104.473z"/><glyph unicode="" glyph-name="triangle" horiz-adv-x="1086" d="M543.03 960L1086.06-64H-.001z"/><glyph unicode="" glyph-name="up" horiz-adv-x="768" d="M253.651-64h260.697v557.367h253.651L383.999 960l-384-466.633H253.65z"/><glyph unicode="" glyph-name="wrong" d="M1024 857.6L921.6 960 512 550.4 102.4 960 0 857.6 409.6 448 0 38.4 102.4-64 512 345.6 921.6-64 1024 38.4 614.4 448z"/><glyph unicode="" glyph-name="arrow-solid" d="M345.977 861.239l651.67 72.408-72.408-651.67L744.22 462.996 237.366-43.858 20.143 173.365l506.854 506.854z"/></font></defs></svg>
